common/src/main/resources/icons/plugins/resharper/SolBuilderDuo/SolBuilderDuoCancel.svg

<svg xmlns="http://www.w3.org/2000/svg" width="16" height="16" data-big="true" viewBox="0 0 24 24"><mask id="a"><path fill="#fff" d="M0 0h24v24H0z"/><path stroke="#000" stroke-width="2" d="m0-2 24 24"/></mask><path stroke="#EC407A" stroke-width="2" d="m0 0 24 24" mask="url(#a)"/><path fill="#EC407A" d="m16 5 3 3-.5.5c1 1 1.5 1.5 2 1L22 11c0 1-1.5 2.5-2.5 2.5L18 12c.5-.5 0-1-1-2l-1 1-3-3c1.5-2 0-4-4-3 1-1 2-2 3-2 .5 0 2 0 4 2M2 20l2 2 10-10-2-2z" mask="url(#a)"/></svg>

<!--
  - The MIT License (MIT)
  -
  - Copyright (c) 2015-2024 Elior "Mallowigi" Boukhobza
  -
  - Permission is hereby granted, free of charge, to any person obtaining a copy
  - of this software and associated documentation files (the "Software"), to deal
  - in the Software without restriction, including without limitation the rights
  - to use, copy, modify, merge, publish, distribute, sublicense, and/or sell
  - copies of the Software, and to permit persons to whom the Software is
  - furnished to do so, subject to the following conditions:
  -
  - The above copyright notice and this permission notice shall be included in all
  - copies or substantial portions of the Software.
  -
  - THE SOFTWARE IS PROVIDED "AS IS", WITHOUT WARRANTY OF ANY KIND, EXPRESS OR
  - IMPLIED, INCLUDING BUT NOT LIMITED TO THE WARRANTIES OF MERCHANTABILITY,
  - FITNESS FOR A PARTICULAR PURPOSE AND NONINFRINGEMENT. IN NO EVENT SHALL THE
  - AUTHORS OR COPYRIGHT HOLDERS BE LIABLE FOR ANY CLAIM, DAMAGES OR OTHER
  - LIABILITY, WHETHER IN AN ACTION OF CONTRACT, TORT OR OTHERWISE, ARISING FROM,
  - OUT OF OR IN CONNECTION WITH THE SOFTWARE OR THE USE OR OTHER DEALINGS IN THE
  - SOFTWARE.
  -->


<svg data-big="true" xmlns="http://www.w3.org/2000/svg" version="1.1" width="16px" height="16px" viewBox="0 0 24 24">
  <mask id="mask">
    <rect width="24" height="24" fill="#ffffff"></rect>
    <line x1="0" y1="-2" x2="24" y2="22" stroke="#000000" stroke-width="2"></line>
  </mask>
  <line x1="0" y1="0" x2="24" y2="24" stroke="#EC407A" stroke-width="2" mask="url(#mask)"></line>
  <path fill="#EC407A" mask="url(#mask)"
        d="M16,5L19,8L18.5,8.5C19.5,9.5 20,10 20.5,9.5L22,11C22,12 20.5,13.5 19.5,13.5L18,12C18.5,11.5 18,11 17,10L16,11L13,8C14.5,6 13,4 9,5C10,4 11,3 12,3C12.5,3 14,3 16,5M2,20L4,22L14,12L12,10L2,20Z"/>
</svg>
